!!!!SEGMENT: pl-sa--l-1643--028_anonim--na-boze-cialo-dominus-jesus-in-qua-nocte.krn
!!!cenid: 16xx:1383
!!!COM: Anonim
!!!COM-rismid: pe30004985
!!!CDT:
!!!CNT:
!!!OTL: Na Boże ciało
!!!PDT:
!!!AGN: Sacred
!!!SMS-siglum: PL-SA
!!!SMS-shelfmark: L 1643
!!!SMS-shelfwork: 028 G
!!!SMS-variant:
!!!SMS-altvar:
!!!NIFC-rismid: 1001063825
!!!URL-scan: http://repozytorium.nifc.pl/skany/pl-sa-nut--l1643
!!!ONB-nifc: UWAGA: 8 ksiąg. Primi chori: 1mus Cantus (x), C 2dus (50-51), C 3tius (x), Bassus (x); Secondi chori: Primus Cantus (x), C 2dus (x), Altus (x), Bassus (109-111). UWAGA: metrum 2/2. Nie dodawać pustych linii, chyba że w rękopisie pojawiają się dodatkowe oznaczenia dotyczące pełnej obsady (a 4, a 8 itp.)
**kern	**text	**kern	**text
*part2	*part2	*part1	*part1
*staff2	*staff2	*staff1	*staff1
*I"Baſsus 2di Chori	*	*I"Cantus 2dus Primi Chori.	*
*I'II Coro B	*	*I'I Coro S 2	*
*clefC3	*	*clefC1	*
*k[]	*	*k[]	*
*a:	*	*a:	*
*M2/1	*	*M2/1	*
*met(C|)	*	*met(C|)	*
=1	=1	=1	=1
!	!	!LO:TX:t=4:problem:po lewej stronie pięciolinii	!
1.d\	Do-	00r	.
2d\	-mi-	.	.
=2-	=2-	=2-	=2-
1A/	-nuſ	.	.
1c\	ie-	.	.
=3-	=3-	=3-	=3-
0d\	-ſus	1.dd\	Do-
.	.	2dd\	-mi-
=4-	=4-	=4-	=4-
!	!	!LO:TX:b:t=P:problem:♯ below	!
00r	.	1cc#X\	-nuſ
.	.	1dd\	ie-
=5-	=5-	=5-	=5-
.	.	2ccny\	-ſuſ
.	.	2a\	in
.	.	2cc\	qua
.	.	1cc\	no-
=6-	=6-	=6-	=6-
0r	.	.	.
.	.	2cc\	-cte
.	.	2a\	tra-
.	.	2a\	-de-
=7-	=7-	=7-	=7-
1r	.	2.f/	-ba-
.	.	4g/	.
2r	.	1a\	-tur
2A/	in	.	.
=8-	=8-	=8-	=8-
2G/	qua	00r	.
1c\	no-	.	.
2G/	-cte	.	.
=9-	=9-	=9-	=9-
2A/	tra-	.	.
2E/	-de-	.	.
1F/	-ba-	.	.
=10-	=10-	=10-	=10-
!LO:TX:t=P:problem:oddech jako rozdzielacz słów:global	!	!	!
2E,</	-tur	0r	.
2d\	ac-	.	.
2f\	-ce-	.	.
2c/	-pit	.	.
=11-	=11-	=11-	=11-
1d\	pa-	1r	.
1A/	-nem	2r	.
.	.	2cc\	ac-
=12-	=12-	=12-	=12-
00r	.	2cc\	-ce-
.	.	2b\	-pit
.	.	1a\	pa-
=13-	=13-	=13-	=13-
!	!	!LO:TX:b:t=P:problem:♯ below	!
.	.	2g#X/	-nem
.	.	2a\	et
.	.	2.b\	gra-
.	.	4b\	-ti-
=14-	=14-	=14-	=14-
!	!	!LO:SIC:v:t=custos a	!
00r	.	2cc\	-as
!	!	!LO:LB:g=original	!
.	.	2a\	a-
.	.	2a\	-genſ
.	.	2cc\	fre-
=15-	=15-	=15-	=15-
.	.	2cc\	-git
.	.	2a\	et
.	.	1a\	di-
=16-	=16-	=16-	=16-
2r	.	2a\	-xit,
2A/	fre-	2r	.
!LO:SIC:v:l:t=custos et	!	!	!
!LO:SIC:v:t=custos d	!	!	!
2c/	-git	0r	.
!LO:PB:g=original	!	!	!
2d\	et	.	.
=17-	=17-	=17-	=17-
1A/	dÿ-	.	.
2d\	-xit,	2r	.
2r	.	2cc\	fre-
=18-	=18-	=18-	=18-
0r	.	2cc\	-git
.	.	2a\	et
.	.	1a\	di-
=19-	=19-	=19-	=19-
2r	.	2a\	-xit
!	!	!LO:TX:t=P:problem:brak pauzy 2r	!
2A/	fre-	2ryy	.
2c/	-git	00r	.
2d\	et	.	.
=20-	=20-	=20-	=20-
1A/	dÿ-	.	.
2d,<\	-xit,	.	.
2d\	ac-	.	.
=21-	=21-	=21-	=21-
2.G/	-ci-	.	.
4G/	-pi-	.	.
2c/	-te	0r	.
2c/	et	.	.
=22-	=22-	=22-	=22-
2f\	man-	.	.
2c/	-du-	.	.
1d\	-ca-	1r	.
=23-	=23-	=23-	=23-
1A/	-te,	2r	.
.	.	2a\	ac-
00r	.	2.a\	-ci-
.	.	4a\	-pi-
=24-	=24-	=24-	=24-
.	.	2a\	-te
.	.	2a\	et
.	.	2cc\	man-
.	.	2b\	-du-
=25-	=25-	=25-	=25-
.	.	1a\	-ca-
!	!	!LO:TX:b:t=P:problem:♯ below	!
2r	.	1g#X\	-te,
1E/	hoc	.	.
=26-	=26-	=26-	=26-
.	.	0r	.
2A/	eſt	.	.
2G/	cor-	.	.
2c/	-puſ	.	.
=27-	=27-	=27-	=27-
!LO:SIC:v:t=custos A	!	!	!
1d\	me-	1r	.
!LO:LB:g=original	!	!	!
2A/	-um,	2r	.
2r	.	1gny\	hoc
=28-	=28-	=28-	=28-
0r	.	.	.
!	!	!LO:SIC:v:t=custos b	!
.	.	2a\	eſt
!	!	!LO:LB:g=original	!
.	.	2b\	cor-
.	.	2cc\	-puſ
=29-	=29-	=29-	=29-
1r	.	1a\	me-
!	!	!LO:TX:b:t=P:problem:♯ below	!
2r	.	1g#X\	-um,
2A/	quod	.	.
=30-	=30-	=30-	=30-
2c/	pro	0r	.
2d\	no-	.	.
2e\	-bis	.	.
2f\	tra-	.	.
=31-	=31-	=31-	=31-
1e\	-de-	1r	.
1A/	-tur,	2r	.
.	.	2cc\	quod
=32-	=32-	=32-	=32-
0r	.	2cc\	pro
.	.	2a\	uo-
.	.	2a\	-bis
.	.	2dd\	tra-
=33-	=33-	=33-	=33-
1r	.	1b-X\	-de-
2r	.	2a\	-tur
2a\	in	2cc\	in
=34-	=34-	=34-	=34-
1a\	me-	1cc\	me-
2a\	-am	2a\	-am
2a\	com-	2a\	com-
=35-	=35-	=35-	=35-
2a\	-me-	2a\	-me-
2a\	-mo-	2a\	-mo-
4d\	-ra-	2a\	-ra-
4e\	.	.	.
4f\	ti-	2a\	-ti-
4g\	.	.	.
=36-	=36-	=36-	=36-
1a\	-o-	1a\	-o-
2d,<\	-nem,	2a\	-nem,
2A/	hoc	2r	.
=37-	=37-	=37-	=37-
2c/	fa-	1r	.
2d\	-ci-	.	.
!LO:SIC:v:t=custos A	!	!	!
1A/	-te	2r	.
!	!	!LO:SIC:v:t=custos cc	!
.	.	2cc\	hoc
=38-	=38-	=38-	=38-
!LO:TX:t=P:problem:zbędne powtórzenie tt. nr 36-37 	!	!LO:TX:t=P:problem:zbędne powtórzenie w II Coro B 	!
!LO:LB:g=original	!	!	!
1r	.	0ryy	.
2r	.	.	.
2A/	hoc	.	.
=39-	=39-	=39-	=39-
2c/	fa-	0ryy	.
2d\	-ci-	.	.
1A/	-te,	.	.
=40-	=40-	=40-	=40-
!	!	!LO:LB:g=original	!
00r	.	2cc\	fa-
.	.	2a\	-ci-
.	.	2a\	-te
.	.	2cc\	in
=41-	=41-	=41-	=41-
.	.	0cc\	me-
=42-	=42-	=42-	=42-
00r	.	2cc\	-am
.	.	2cc\	com-
.	.	2cc\	-me-
.	.	2a\	-mo-
=43-	=43-	=43-	=43-
.	.	2a\	-ra-
.	.	4f/	-ti-
.	.	4gny/	.
.	.	1a\	-o-
=44-	=44-	=44-	=44-
2r	.	2a\	-nem,
2A/	hoc	2r	.
2c\	fa-	00r	.
2d\	-ci-	.	.
=45-	=45-	=45-	=45-
2A/	-te	.	.
2F/	in	.	.
0c\	me-	.	.
=46-	=46-	=46-	=46-
.	.	.	.
1F/,<	-am	1r	.
=47-	=47-	=47-	=47-
1f\	com-	1cc\	com-
2c/	-me-	2cc\	-me-
2g\	-mo-	2bny\	-mo-
=48-	=48-	=48-	=48-
2d\	-ra-	2a\	-ra-
2d\	-ti-	2a\	-ti-
0a\	-o-	0a\	-o-
=49-	=49-	=49-	=49-
.	.	.	.
1d\;	-nem	1a\;	-nem;
=50||-	=50||-	=50||-	=50||-
*M2/1	*	*M2/1	*
*met(C|)	*	*met(C|)	*
!LO:LB:g=original	!	!LO:LB:g=original	!
00r	.	1a\	Si-
.	.	2.a\	-mi-
.	.	4a\	-li-
=51-	=51-	=51-	=51-
.	.	2a\	-ter
.	.	2a\	et
.	.	2.cc\	ka-
.	.	4cc\	-li-
=52-	=52-	=52-	=52-
00r	.	2cc\	-cem
.	.	2cc\	poſt-
.	.	2a\	-qua(m)
.	.	2cc\	ce-
=53-	=53-	=53-	=53-
.	.	2b\	-na-
.	.	2.a\	-uit
.	.	8g/L	.
.	.	8f/J	.
!	!	!LO:TX:b:t=P:problem:♯ below	!
.	.	2g#X/	di-
=54-	=54-	=54-	=54-
2r	.	1a\	-cens,
2A/	Si-	.	.
2.E/	-mi-	00r	.
4E/	-li-	.	.
=55-	=55-	=55-	=55-
2E/	-ter	.	.
2A/	et	.	.
2.G/	ca-	.	.
4G/	-li-	.	.
=56-	=56-	=56-	=56-
2c,</	-cem	.	.
2G/	poſt	.	.
2A/	quam	0r	.
2G/	ce-	.	.
=57-	=57-	=57-	=57-
2c/	-na-	.	.
2d\	-uit	.	.
1A/	dÿ-	1r	.
=58-	=58-	=58-	=58-
1d\	-cens,	2r	.
.	.	2a\	hic
00r	.	1a\	ca-
=59-	=59-	=59-	=59-
.	.	2b\	-lix
.	.	1cc\	no-
.	.	2a\	-uvm
=60-	=60-	=60-	=60-
.	.	2cc\	te-
!	!	!LO:SIC:v:t=custos cc	!
.	.	2a\	-ſta-
!	!	!LO:LB:g=original	!
1r	.	2cc\	-men-
.	.	2a\	-tum
=61-	=61-	=61-	=61-
2r	.	1a\	eſt,
2A/	hic	.	.
1E/	ca-	00r	.
=62-	=62-	=62-	=62-
2A/	-lix	.	.
!LO:SIC:v:t=custos A	!	!	!
1G/	no-	.	.
!LO:LB:g=original	!	!	!
2A/	-uvm	.	.
=63-	=63-	=63-	=63-
2E/	te-	.	.
2A/	-ſta-	.	.
2G/	-men-	1r	.
2A/	-tum	.	.
=64-	=64-	=64-	=64-
1d\	eſt,	2r	.
.	.	2a\	in
0r	.	1cc\	me-
=65-	=65-	=65-	=65-
.	.	1cc\	-o
1r	.	2.cc\	San-
.	.	4cc\	-gui-
=66-	=66-	=66-	=66-
2r	.	1cc\	-ne,
2f\	in	.	.
2.e\	me	0r	.
4d\	.	.	.
=67-	=67-	=67-	=67-
2c/	.	.	.
2A/	.	.	.
2.e\	San-	1r	.
4e\	-gui-	.	.
=68-	=68-	=68-	=68-
1A/	-ne	2r	.
.	.	2cc\	hoc
0r	.	2cc\	fa-
.	.	2a\	-ci-
=69-	=69-	=69-	=69-
.	.	2a\	-te,
.	.	2f/	hoc
1r	.	2a\	fa-
.	.	2gny/	-ci-
=70-	=70-	=70-	=70-
!	!	!LO:TX:b:t=P:problem:♯ below	!
2r	.	2f#X/	-te
2c/	hoc	2r	.
2G/	fa-	0r	.
2A/	-ci-	.	.
=71-	=71-	=71-	=71-
2d,<\	-te	.	.
2A/	hoc	.	.
2c\	fa-	1r	.
2d\	-ci-	.	.
=72-	=72-	=72-	=72-
!LO:SIC:v:t=custos A	!	!	!
1A/	-te	2r	.
.	.	2.a\	quo-
!LO:LB:g=original	!	!	!
0r	.	.	.
.	.	4a\	-ti-
!	!	!LO:SIC:v:l:t=custos cum	!
!	!	!LO:SIC:v:t=custos b	!
.	.	2a\	-es
=73-	=73-	=73-	=73-
!	!	!LO:PB:g=original	!
!	!	!LO:SIC:v:l:t=cum	!
.	.	2b\	cun-
.	.	4cc\	-que
.	.	4b\	bi-
1r	.	2a\	-be-
!	!	!LO:TX:b:t=P:problem:♯ below	!
.	.	2g#X/	-ri-
=74-	=74-	=74-	=74-
2r	.	1a\	-tiſ,
2.A/	quo-	.	.
.	.	0r	.
4A/	-ti-	.	.
2A/,<	-es	.	.
=75-	=75-	=75-	=75-
2G/	cum-	.	.
4c/	-que	.	.
4G/	bi-	.	.
2A/	-be-	1r	.
2E/	-ri-	.	.
=76-	=76-	=76-	=76-
2A/,<	-tis,	2r	.
2.a\	quo-	2.cc\	quo-
4a\	-ti-	4cc\	-ti-
2a\	-es	2a\	-es
=77-	=77-	=77-	=77-
!	!	!LO:SIC:v:l:t=cum	!
1a\	cum-	1a\	cun-
1a\,<	-que	2cc\	-que
.	.	2a\	bi-
=78-	=78-	=78-	=78-
1d\	bi-	1a\	-be-
1.a\	-be-	0a\	-ri-
=79-	=79-	=79-	=79-
.	.	.	.
2a\	-ri-	.	.
2d\	-tiſ,	2a\	-tis,
2A/	hoc	2r	.
=80-	=80-	=80-	=80-
2c/	fa-	1r	.
2d\	-ci-	.	.
!LO:SIC:v:l:t=custos hoc	!	!	!
!LO:SIC:v:t=custos A	!	!	!
1A/	-te	2r	.
.	.	2cc\	hoc
=81-	=81-	=81-	=81-
!LO:PB:g=original	!	!LO:SIC:v:t=custos a	!
1r	.	2cc\	fa-
!	!	!LO:LB:g=original	!
.	.	2a\	-ci-
2r	.	1a\	-te,
!LO:TX:t=P:problem:brak powtórzenia fragmentu "hoc facite"	!	!	!
2ryy	.	.	.
=82-	=82-	=82-	=82-
0ryy	.	1r	.
.	.	2r	.
.	.	2cc\	hoc
=83-	=83-	=83-	=83-
00r	.	2cc\	fa-
.	.	2a\	-ci-
.	.	2a,<\	-te
.	.	2cc\	im
=84-	=84-	=84-	=84-
.	.	0cc\	me-
=85-	=85-	=85-	=85-
00r	.	2cc\	-am
.	.	2cc\	com-
.	.	2cc\	-me-
.	.	2a\	-mo-
=86-	=86-	=86-	=86-
.	.	2a\	-ra-
.	.	4fny/	-ti-
.	.	4gny/	.
.	.	1a\	-o-
=87-	=87-	=87-	=87-
2r	.	2a\	-nem,
2A/	hoc	2r	.
2c/	fa-	00r	.
2d\	-ci-	.	.
=88-	=88-	=88-	=88-
2A,</	-te	.	.
2F/	in	.	.
0c\	me-	.	.
=89-	=89-	=89-	=89-
.	.	.	.
1F/,<	-am	1r	.
=90-	=90-	=90-	=90-
1f\	com-	1cc\	com-
2c/	-me-	2cc\	-me-
2g\	-mo-	2b\	-mo-
=91-	=91-	=91-	=91-
1.d\	-ra-	1.a\	-ra-
!	!	!LO:SIC:v:t=custos a	!
2d\	-ti-	2a\	-ti-
=92-	=92-	=92-	=92-
!	!	!LO:LB:g=original	!
0a\	-o-	0a\	-o-
=93-	=93-	=93-	=93-
0d\;	-nem;	0a\;	-nem;
==	==	==	==
*-	*-	*-	*-
!!!system-decoration: [(s1)][(s2)]
!!!ENC: Andrzej Kubiczek
!!!END: 2021-10-12
!!!RDF**kern: < = below
!!!EED: Andrzej Borzym
!!!EST: 2021-10-15
